images/4826.svg

<?xml version="1.0" encoding="UTF-8"?>
<svg xmlns="http://www.w3.org/2000/svg" xmlns:xlink="http://www.w3.org/1999/xlink" width="300pt" height="300pt" viewBox="0 0 300 300" version="1.1">
<defs>
<g>
<symbol overflow="visible" id="glyph0-0">
<path style="stroke:none;" d="M 0.796875 2.828125 L 0.796875 -11.28125 L 8.796875 -11.28125 L 8.796875 2.828125 Z M 1.703125 1.9375 L 7.90625 1.9375 L 7.90625 -10.390625 L 1.703125 -10.390625 Z M 1.703125 1.9375 "/>
</symbol>
<symbol overflow="visible" id="glyph0-1">
<path style="stroke:none;" d="M 1.578125 -11.671875 L 3.703125 -11.671875 L 8.875 -1.90625 L 8.875 -11.671875 L 10.40625 -11.671875 L 10.40625 0 L 8.28125 0 L 3.109375 -9.765625 L 3.109375 0 L 1.578125 0 Z M 1.578125 -11.671875 "/>
</symbol>
<symbol overflow="visible" id="glyph0-2">
<path style="stroke:none;" d="M 1.578125 -11.671875 L 3.15625 -11.671875 L 3.15625 -6.890625 L 8.890625 -6.890625 L 8.890625 -11.671875 L 10.46875 -11.671875 L 10.46875 0 L 8.890625 0 L 8.890625 -5.5625 L 3.15625 -5.5625 L 3.15625 0 L 1.578125 0 Z M 1.578125 -11.671875 "/>
</symbol>
</g>
</defs>
<g id="surface35741">
<rect x="0" y="0" width="300" height="300" style="fill:rgb(100%,100%,100%);fill-opacity:1;stroke:none;"/>
<path style="fill:none;stroke-width:1.2;stroke-linecap:butt;stroke-linejoin:miter;stroke:rgb(0%,0%,0%);stroke-opacity:1;stroke-miterlimit:10;" d="M 97.761719 54.417969 L 98.90625 92.652344 "/>
<path style="fill:none;stroke-width:1.2;stroke-linecap:butt;stroke-linejoin:miter;stroke:rgb(0%,0%,0%);stroke-opacity:1;stroke-miterlimit:10;" d="M 98.90625 92.652344 L 66.367188 112.757812 "/>
<path style="fill:none;stroke-width:1.2;stroke-linecap:butt;stroke-linejoin:miter;stroke:rgb(0%,0%,0%);stroke-opacity:1;stroke-miterlimit:10;" d="M 98.90625 92.652344 L 115.746094 101.714844 "/>
<path style="fill:none;stroke-width:1.2;stroke-linecap:butt;stroke-linejoin:miter;stroke:rgb(0%,0%,100%);stroke-opacity:1;stroke-miterlimit:10;" d="M 115.746094 101.714844 L 132.585938 110.777344 "/>
<path style="fill:none;stroke-width:1.2;stroke-linecap:butt;stroke-linejoin:miter;stroke:rgb(0%,0%,0%);stroke-opacity:1;stroke-miterlimit:10;" d="M 66.367188 112.757812 L 46.261719 80.21875 "/>
<path style="fill:none;stroke-width:1.2;stroke-linecap:butt;stroke-linejoin:miter;stroke:rgb(0%,0%,0%);stroke-opacity:1;stroke-miterlimit:10;" d="M 66.367188 112.757812 L 86.472656 145.296875 "/>
<path style="fill:none;stroke-width:1.2;stroke-linecap:butt;stroke-linejoin:miter;stroke:rgb(0%,0%,0%);stroke-opacity:1;stroke-miterlimit:10;" d="M 66.367188 112.757812 L 33.828125 132.863281 "/>
<path style="fill:none;stroke-width:1.2;stroke-linecap:butt;stroke-linejoin:miter;stroke:rgb(0%,0%,100%);stroke-opacity:1;stroke-miterlimit:10;" d="M 132.585938 110.777344 L 133.160156 129.894531 "/>
<path style="fill:none;stroke-width:1.2;stroke-linecap:butt;stroke-linejoin:miter;stroke:rgb(0%,0%,0%);stroke-opacity:1;stroke-miterlimit:10;" d="M 133.160156 129.894531 L 133.730469 149.011719 "/>
<path style="fill:none;stroke-width:1.2;stroke-linecap:butt;stroke-linejoin:miter;stroke:rgb(0%,0%,100%);stroke-opacity:1;stroke-miterlimit:10;" d="M 123.707031 114.871094 L 124.164062 130.164062 "/>
<path style="fill:none;stroke-width:1.2;stroke-linecap:butt;stroke-linejoin:miter;stroke:rgb(0%,0%,0%);stroke-opacity:1;stroke-miterlimit:10;" d="M 124.164062 130.164062 L 124.621094 145.457031 "/>
<path style=" stroke:none;fill-rule:nonzero;fill:rgb(100%,100%,100%);fill-opacity:1;" d="M 126.585938 101.277344 L 138.585938 101.277344 L 138.585938 120.277344 L 126.585938 120.277344 Z M 126.585938 101.277344 "/>
<g style="fill:rgb(0%,0%,100%);fill-opacity:1;">
  <use xlink:href="#glyph0-1" x="126.585938" y="116.128906"/>
</g>
<path style="fill:none;stroke-width:1.2;stroke-linecap:butt;stroke-linejoin:miter;stroke:rgb(0%,0%,0%);stroke-opacity:1;stroke-miterlimit:10;" d="M 133.730469 149.011719 L 117.460938 159.0625 "/>
<path style="fill:none;stroke-width:1.2;stroke-linecap:butt;stroke-linejoin:miter;stroke:rgb(0%,0%,100%);stroke-opacity:1;stroke-miterlimit:10;" d="M 117.460938 159.0625 L 101.191406 169.117188 "/>
<path style="fill:none;stroke-width:1.2;stroke-linecap:butt;stroke-linejoin:miter;stroke:rgb(0%,0%,0%);stroke-opacity:1;stroke-miterlimit:10;" d="M 133.730469 149.011719 L 150.570312 158.074219 "/>
<path style="fill:none;stroke-width:1.2;stroke-linecap:butt;stroke-linejoin:miter;stroke:rgb(0%,0%,100%);stroke-opacity:1;stroke-miterlimit:10;" d="M 150.570312 158.074219 L 167.414062 167.136719 "/>
<path style="fill:none;stroke-width:1.2;stroke-linecap:butt;stroke-linejoin:miter;stroke:rgb(0%,0%,100%);stroke-opacity:1;stroke-miterlimit:10;" d="M 101.191406 169.117188 L 101.761719 188.234375 "/>
<path style="fill:none;stroke-width:1.2;stroke-linecap:butt;stroke-linejoin:miter;stroke:rgb(0%,0%,0%);stroke-opacity:1;stroke-miterlimit:10;" d="M 101.761719 188.234375 L 102.332031 207.347656 "/>
<path style=" stroke:none;fill-rule:nonzero;fill:rgb(100%,100%,100%);fill-opacity:1;" d="M 89.191406 159.617188 L 113.191406 159.617188 L 113.191406 178.617188 L 89.191406 178.617188 Z M 89.191406 159.617188 "/>
<g style="fill:rgb(0%,0%,100%);fill-opacity:1;">
  <use xlink:href="#glyph0-1" x="89.191406" y="174.46875"/>
  <use xlink:href="#glyph0-2" x="101.160156" y="174.46875"/>
</g>
<path style="fill:none;stroke-width:1.2;stroke-linecap:butt;stroke-linejoin:miter;stroke:rgb(0%,0%,0%);stroke-opacity:1;stroke-miterlimit:10;" d="M 102.332031 207.347656 L 102.90625 226.464844 "/>
<path style="fill:none;stroke-width:1.2;stroke-linecap:butt;stroke-linejoin:miter;stroke:rgb(0%,0%,100%);stroke-opacity:1;stroke-miterlimit:10;" d="M 102.90625 226.464844 L 103.476562 245.582031 "/>
<path style="fill:none;stroke-width:1.2;stroke-linecap:butt;stroke-linejoin:miter;stroke:rgb(0%,0%,0%);stroke-opacity:1;stroke-miterlimit:10;" d="M 93.453125 211.441406 L 93.910156 226.734375 "/>
<path style="fill:none;stroke-width:1.2;stroke-linecap:butt;stroke-linejoin:miter;stroke:rgb(0%,0%,100%);stroke-opacity:1;stroke-miterlimit:10;" d="M 93.910156 226.734375 L 94.367188 242.027344 "/>
<path style="fill:none;stroke-width:1.2;stroke-linecap:butt;stroke-linejoin:miter;stroke:rgb(0%,0%,0%);stroke-opacity:1;stroke-miterlimit:10;" d="M 111.445312 210.902344 L 111.898438 226.195312 "/>
<path style="fill:none;stroke-width:1.2;stroke-linecap:butt;stroke-linejoin:miter;stroke:rgb(0%,0%,100%);stroke-opacity:1;stroke-miterlimit:10;" d="M 111.898438 226.195312 L 112.355469 241.492188 "/>
<path style=" stroke:none;fill-rule:nonzero;fill:rgb(100%,100%,100%);fill-opacity:1;" d="M 97.476562 236.082031 L 109.476562 236.082031 L 109.476562 255.082031 L 97.476562 255.082031 Z M 97.476562 236.082031 "/>
<g style="fill:rgb(0%,0%,100%);fill-opacity:1;">
  <use xlink:href="#glyph0-1" x="97.476562" y="250.933594"/>
</g>
<path style="fill:none;stroke-width:1.2;stroke-linecap:butt;stroke-linejoin:miter;stroke:rgb(0%,0%,100%);stroke-opacity:1;stroke-miterlimit:10;" d="M 167.414062 167.136719 L 183.683594 157.085938 "/>
<path style="fill:none;stroke-width:1.2;stroke-linecap:butt;stroke-linejoin:miter;stroke:rgb(0%,0%,0%);stroke-opacity:1;stroke-miterlimit:10;" d="M 183.683594 157.085938 L 199.953125 147.03125 "/>
<path style=" stroke:none;fill-rule:nonzero;fill:rgb(100%,100%,100%);fill-opacity:1;" d="M 155.414062 157.636719 L 179.414062 157.636719 L 179.414062 176.636719 L 155.414062 176.636719 Z M 155.414062 157.636719 "/>
<g style="fill:rgb(0%,0%,100%);fill-opacity:1;">
  <use xlink:href="#glyph0-1" x="155.414062" y="172.488281"/>
  <use xlink:href="#glyph0-2" x="167.382812" y="172.488281"/>
</g>
<path style="fill:none;stroke-width:1.2;stroke-linecap:butt;stroke-linejoin:miter;stroke:rgb(0%,0%,0%);stroke-opacity:1;stroke-miterlimit:10;" d="M 199.953125 147.03125 L 198.808594 108.800781 "/>
<path style="fill:none;stroke-width:1.2;stroke-linecap:butt;stroke-linejoin:miter;stroke:rgb(0%,0%,0%);stroke-opacity:1;stroke-miterlimit:10;" d="M 208.832031 142.941406 L 207.917969 112.351562 "/>
<path style="fill:none;stroke-width:1.2;stroke-linecap:butt;stroke-linejoin:miter;stroke:rgb(0%,0%,0%);stroke-opacity:1;stroke-miterlimit:10;" d="M 233.632812 165.160156 L 199.953125 147.03125 "/>
<path style="fill:none;stroke-width:1.2;stroke-linecap:butt;stroke-linejoin:miter;stroke:rgb(0%,0%,0%);stroke-opacity:1;stroke-miterlimit:10;" d="M 198.808594 108.800781 L 231.347656 88.691406 "/>
<path style="fill:none;stroke-width:1.2;stroke-linecap:butt;stroke-linejoin:miter;stroke:rgb(0%,0%,0%);stroke-opacity:1;stroke-miterlimit:10;" d="M 231.347656 88.691406 L 248.191406 97.757812 "/>
<path style="fill:none;stroke-width:1.2;stroke-linecap:butt;stroke-linejoin:miter;stroke:rgb(0%,0%,100%);stroke-opacity:1;stroke-miterlimit:10;" d="M 248.191406 97.757812 L 265.03125 106.820312 "/>
<path style="fill:none;stroke-width:1.2;stroke-linecap:butt;stroke-linejoin:miter;stroke:rgb(0%,0%,0%);stroke-opacity:1;stroke-miterlimit:10;" d="M 230.453125 98.429688 L 243.925781 105.683594 "/>
<path style="fill:none;stroke-width:1.2;stroke-linecap:butt;stroke-linejoin:miter;stroke:rgb(0%,0%,100%);stroke-opacity:1;stroke-miterlimit:10;" d="M 243.925781 105.683594 L 257.398438 112.933594 "/>
<path style="fill:none;stroke-width:1.2;stroke-linecap:butt;stroke-linejoin:miter;stroke:rgb(0%,0%,100%);stroke-opacity:1;stroke-miterlimit:10;" d="M 265.03125 106.820312 L 265.601562 125.9375 "/>
<path style="fill:none;stroke-width:1.2;stroke-linecap:butt;stroke-linejoin:miter;stroke:rgb(0%,0%,0%);stroke-opacity:1;stroke-miterlimit:10;" d="M 265.601562 125.9375 L 266.171875 145.054688 "/>
<path style=" stroke:none;fill-rule:nonzero;fill:rgb(100%,100%,100%);fill-opacity:1;" d="M 259.03125 97.320312 L 271.03125 97.320312 L 271.03125 116.320312 L 259.03125 116.320312 Z M 259.03125 97.320312 "/>
<g style="fill:rgb(0%,0%,100%);fill-opacity:1;">
  <use xlink:href="#glyph0-1" x="259.03125" y="112.171875"/>
</g>
<path style="fill:none;stroke-width:1.2;stroke-linecap:butt;stroke-linejoin:miter;stroke:rgb(0%,0%,0%);stroke-opacity:1;stroke-miterlimit:10;" d="M 266.171875 145.054688 L 233.632812 165.160156 "/>
<path style="fill:none;stroke-width:1.2;stroke-linecap:butt;stroke-linejoin:miter;stroke:rgb(0%,0%,0%);stroke-opacity:1;stroke-miterlimit:10;" d="M 258.1875 139.40625 L 232.15625 155.492188 "/>
</g>
</svg>

<svg xmlns="http://www.w3.org/2000/svg" xmlns:xlink="http://www.w3.org/1999/xlink" width="300pt" height="300pt" viewBox="0 0 300 300"><defs><symbol overflow="visible"><path d="M.797 2.828v-14.11h8V2.83zm.906-.89h6.203v-12.33H1.703zm0 0"/></symbol><symbol overflow="visible" id="a"><path d="M1.578-11.672h2.125l5.172 9.766v-9.766h1.53V0H8.282L3.11-9.766V0H1.577zm0 0"/></symbol><symbol overflow="visible" id="b"><path d="M1.578-11.672h1.578v4.78H8.89v-4.78h1.58V0H8.89v-5.563H3.157V0H1.578zm0 0"/></symbol></defs><g><path fill="#fff" d="M0 0h300v300H0z"/><path d="M97.762 54.418l1.144 38.234M98.906 92.652l-32.54 20.106M98.906 92.652l16.84 9.063" stroke-width="1.2" stroke="#000" stroke-miterlimit="10" fill="none"/><path d="M115.746 101.715l16.84 9.062" stroke-width="1.2" stroke="#00f" stroke-miterlimit="10" fill="none"/><path d="M66.367 112.758l-20.105-32.54M66.367 112.758l20.106 32.54M66.367 112.758l-32.54 20.105" stroke-width="1.2" stroke="#000" stroke-miterlimit="10" fill="none"/><path d="M132.586 110.777l.574 19.118" stroke-width="1.2" stroke="#00f" stroke-miterlimit="10" fill="none"/><path d="M133.16 129.895l.57 19.117" stroke-width="1.2" stroke="#000" stroke-miterlimit="10" fill="none"/><path d="M123.707 114.87l.457 15.294" stroke-width="1.2" stroke="#00f" stroke-miterlimit="10" fill="none"/><path d="M124.164 130.164l.457 15.293" stroke-width="1.2" stroke="#000" stroke-miterlimit="10" fill="none"/><path d="M126.586 101.277h12v19h-12zm0 0" fill="#fff"/><use xlink:href="#a" x="126.586" y="116.129" fill="#00f"/><path d="M133.73 149.012l-16.27 10.05" stroke-width="1.2" stroke="#000" stroke-miterlimit="10" fill="none"/><path d="M117.46 159.063l-16.27 10.054" stroke-width="1.2" stroke="#00f" stroke-miterlimit="10" fill="none"/><path d="M133.73 149.012l16.84 9.062" stroke-width="1.2" stroke="#000" stroke-miterlimit="10" fill="none"/><path d="M150.57 158.074l16.844 9.063M101.19 169.117l.572 19.117" stroke-width="1.2" stroke="#00f" stroke-miterlimit="10" fill="none"/><path d="M101.762 188.234l.57 19.114" stroke-width="1.2" stroke="#000" stroke-miterlimit="10" fill="none"/><path d="M89.19 159.617h24v19h-24zm0 0" fill="#fff"/><g fill="#00f"><use xlink:href="#a" x="89.191" y="174.469"/><use xlink:href="#b" x="101.16" y="174.469"/></g><path d="M102.332 207.348l.574 19.117" stroke-width="1.2" stroke="#000" stroke-miterlimit="10" fill="none"/><path d="M102.906 226.465l.57 19.117" stroke-width="1.2" stroke="#00f" stroke-miterlimit="10" fill="none"/><path d="M93.453 211.44l.457 15.294" stroke-width="1.2" stroke="#000" stroke-miterlimit="10" fill="none"/><path d="M93.91 226.734l.457 15.293" stroke-width="1.2" stroke="#00f" stroke-miterlimit="10" fill="none"/><path d="M111.445 210.902l.453 15.293" stroke-width="1.2" stroke="#000" stroke-miterlimit="10" fill="none"/><path d="M111.898 226.195l.457 15.297" stroke-width="1.2" stroke="#00f" stroke-miterlimit="10" fill="none"/><path d="M97.477 236.082h12v19h-12zm0 0" fill="#fff"/><use xlink:href="#a" x="97.477" y="250.934" fill="#00f"/><path d="M167.414 167.137l16.27-10.05" stroke-width="1.2" stroke="#00f" stroke-miterlimit="10" fill="none"/><path d="M183.684 157.086l16.27-10.055" stroke-width="1.2" stroke="#000" stroke-miterlimit="10" fill="none"/><path d="M155.414 157.637h24v19h-24zm0 0" fill="#fff"/><g fill="#00f"><use xlink:href="#a" x="155.414" y="172.488"/><use xlink:href="#b" x="167.383" y="172.488"/></g><path d="M199.953 147.03l-1.144-38.23M208.832 142.94l-.914-30.588M233.633 165.16l-33.68-18.13M198.81 108.8l32.538-20.11M231.348 88.69l16.843 9.068" stroke-width="1.2" stroke="#000" stroke-miterlimit="10" fill="none"/><path d="M248.19 97.758l16.84 9.062" stroke-width="1.2" stroke="#00f" stroke-miterlimit="10" fill="none"/><path d="M230.453 98.43l13.473 7.254" stroke-width="1.2" stroke="#000" stroke-miterlimit="10" fill="none"/><path d="M243.926 105.684l13.472 7.25M265.03 106.82l.572 19.118" stroke-width="1.2" stroke="#00f" stroke-miterlimit="10" fill="none"/><path d="M265.602 125.938l.57 19.117" stroke-width="1.2" stroke="#000" stroke-miterlimit="10" fill="none"/><path d="M259.03 97.32h12v19h-12zm0 0" fill="#fff"/><use xlink:href="#a" x="259.031" y="112.172" fill="#00f"/><path d="M266.172 145.055l-32.54 20.105M258.188 139.406l-26.032 16.086" stroke-width="1.2" stroke="#000" stroke-miterlimit="10" fill="none"/></g></svg>
